X: 1
T: The Kesh Jig
C: (Arr. www.oaim.ie)
R: jig
M: 6/8
L: 1/8
K: Gmaj
|: "G"G3 GAB | "D"ABG ABD' | "C"edd "G"gdd | "C"edB "D"dBA |
| "G"G3 GAB | "D"ABG ABD' | "C"edd "D"gdB |[1 "D"AGF "G"G2 D :| [2 "D"AGF "G"G2 A |]
|: "G"B2 G d2 d | "C"ege "G"dBA | "G"BAB dBG | "D"ABA AGA |
| "G"B2 G d2 d | "C"ege "G"d2 a | "G"gfg "D"afa |[1 "D"bgf "G"g2 d :| [2 "D"bgf "G"g3 |]
